X:1
T:Lady Beatrice Hamilton
T:Lady Beatrice Hamilton
T:William Marshall
C:William Marshall
%%score { 1 ( 2 3 ) }
L:1/8
M:4/4
K:F
V:1 treble 
V:2 bass 
V:3 bass 
V:1
 FAcA fAcA | FAcA (dc)(BA) | FAcA fAcA | Ggbg (Tfe)(dc) :: Ffef dfcf | cfaf (dc)(BA) |1 %6
 Gg^fg dgBg | dgbg (Tfe)(dc) :|2 [Fd]BBd [Fc]AAc | Ggbg (Tfe)(dc) |] %10
V:2
 [F,,F,]2 [F,,F,]2 [F,,F,]2 [F,,F,]2 | [F,,F,]2 [F,,F,]2 [F,,F,]2 [F,,F,]2 | %2
 [F,,F,]2 [F,,F,]2 [F,,F,]2 [F,,F,]2 | [B,,B,]2 [G,,G,]2 [C,C]2 [C,B,]2 :: %4
 [F,,F,]2 [F,A,]2 [F,B,]2 [F,A,]2 | x6 DC |1 [B,D]2 [B,D]2 [G,B,D]2 [G,B,D]2 | %7
 [G,B,D]2 [G,B,D]2 [G,B,C]2 [G,B,C]2 :|2 [B,,B,]2 [B,,B,]2 [F,,F,]2 [F,,F,]2 | %9
 [B,,B,]2 [G,,G,]2 [C,C]2 [C,C]2 |] %10
V:3
 x8 | x8 | x8 | x8 :: x8 | [F,A,]2 [F,A,]2 [F,A,]2 F,2 |1 x8 | x8 :|2 x8 | x8 |] %10

